main/svg/carrots2.svg

<svg xmlns="http://www.w3.org/2000/svg" width="32" height="32"><path d="m10.996 24 4.008 3.996V32h2v-4.004L21 24h-2l-3 3-3-3ZM21 24l4 3.996V32h2v-4.004L31 24h-2.004L26 27l-3.004-3ZM1 24l4 3.996V32h2.004v-4.004L10.996 24H9l-3 3-3-3Zm0 0" style="stroke:none;fill-rule:nonzero;fill:#000;fill-opacity:1"/></svg>

<svg xmlns="http://www.w3.org/2000/svg" width="32" height="32"><path d="m11 24 4 4v4h2v-4l4-4h-2l-3 3-3-3Zm10 0 4 4v4h2v-4l4-4h-2l-3 3-3-3ZM1 24l4 4v4h2v-4l4-4H9l-3 3-3-3Zm0 0" style="stroke:none;fill-rule:nonzero;fill:#000;fill-opacity:1"/></svg>
